death-star.svg

<svg fill="currentColor" viewBox="0 0 24 24"><path d="M2.05 13h19.9c-.5 5.05-4.76 9-9.95 9-5.18 0-9.45-3.95-9.95-9m19.9-2H2.05c.5-5.05 4.77-9 9.95-9s9.45 3.95 9.95 9M12 6.75a2.5 2.5 0 0 0-2.5-2.5A2.5 2.5 0 0 0 7 6.75a2.5 2.5 0 0 0 2.5 2.5 2.5 2.5 0 0 0 2.5-2.5"/></svg>

<svg  viewBox="0 0 24 24" fill="currentColor"><path  d="M2.05,13H21.95C21.45,18.05 17.19,22 12,22C6.82,22 2.55,18.05 2.05,13M21.95,11H2.05C2.55,5.95 6.82,2 12,2C17.18,2 21.45,5.95 21.95,11M12,6.75A2.5,2.5 0 0,0 9.5,4.25A2.5,2.5 0 0,0 7,6.75A2.5,2.5 0 0,0 9.5,9.25A2.5,2.5 0 0,0 12,6.75Z"/></svg>
